brandFactory_export/2.Regular/Desconexión_2Regular.svg

<?xml version="1.0" encoding="UTF-8"?>
<svg width="24px" height="24px" viewBox="0 0 24 24" version="1.1" xmlns="http://www.w3.org/2000/svg" xmlns:xlink="http://www.w3.org/1999/xlink">
    <title>2.Regular/Desconexión_2Regular</title>
    <g id="Symbols" stroke="none" stroke-width="1" fill="none" fill-rule="evenodd">
        <g id="2.Regular/Desconexión_2Regular" fill="#5CB615" fill-rule="nonzero">
            <path d="M14.7563025,16.194958 C19.6369748,16.194958 22.1210084,13.7243697 22.1210084,8.85714286 C22.1210084,3.97647059 19.6369748,1.49915966 14.7596639,1.49915966 C11.5226891,1.49915966 9.33781513,2.59159664 8.23529412,4.72941176 L9.46890756,4.72941176 C10.6621849,4.72941176 11.5428571,5.03865546 12.1848739,5.68067227 C12.8134454,6.31932773 13.1260504,7.2 13.1260504,8.38991597 L13.1260504,16.0907563 C13.6470588,16.1546218 14.1747899,16.194958 14.7563025,16.194958 Z M11.6201681,19.9663866 L11.6201681,8.38655462 C11.6201681,7.62016807 11.4588235,7.0789916 11.1193277,6.7394958 C10.7798319,6.4 10.2386555,6.22857143 9.46554622,6.22857143 L3.65714286,6.22857143 C2.89411765,6.22857143 2.36638655,6.39663866 2.01344538,6.74957983 C1.66386555,7.09915966 1.50252101,7.63697479 1.50252101,8.38655462 L1.50252101,19.9663866 C1.50252101,20.7361345 1.66386555,21.2840336 2.01344538,21.6268908 C2.35294118,21.9563025 2.89411765,22.1277311 3.65714286,22.1277311 L9.46890756,22.1277311 C10.2319328,22.1277311 10.7697479,21.9563025 11.112605,21.6268908 C11.4621849,21.2840336 11.6201681,20.7361345 11.6201681,19.9663866 L11.6201681,19.9663866 Z M14.7563025,0 C20.4672269,0 23.6235294,3.14957983 23.6235294,8.85714286 C23.6235294,14.5546218 20.4672269,17.6941176 14.7563025,17.6941176 C14.1848739,17.6941176 13.6436975,17.6537815 13.1226891,17.5932773 L13.1226891,19.9663866 C13.1226891,21.1663866 12.8134454,22.0537815 12.1714286,22.6857143 C11.5428571,23.3142857 10.6487395,23.6268908 9.46554622,23.6268908 L3.65714286,23.6268908 C2.47394958,23.6268908 1.59327731,23.3176471 0.951260504,22.6857143 C0.312605042,22.0537815 0,21.1663866 0,19.9663866 L0,8.38655462 C0,7.21680672 0.312605042,6.3394958 0.941176471,5.70084034 C1.58991597,5.05210084 2.47394958,4.72941176 3.65714286,4.72941176 L6.60168067,4.72941176 C7.82521008,1.65042017 10.6319328,0 14.7563025,0 Z M6.56134454,18.8403361 C7.17647059,18.8403361 7.54285714,19.210084 7.54285714,19.8252101 C7.54285714,20.1277311 7.45882353,20.3663866 7.28739496,20.5411765 C7.11596639,20.7159664 6.86386555,20.810084 6.56134454,20.810084 C6.25882353,20.810084 6.00672269,20.7159664 5.83529412,20.5411765 C5.66386555,20.3663866 5.57983193,20.1277311 5.57983193,19.8252101 C5.57983193,19.2067227 5.94621849,18.8403361 6.56134454,18.8403361 Z M16.9714286,12.097479 L14.4739496,9.60672269 C14.3327731,9.46554622 14.2521008,9.27731092 14.2521008,9.07563025 L14.2521008,5.70084034 C14.2521008,5.28739496 14.5882353,4.94789916 15.005042,4.94789916 C15.4184874,4.94789916 15.7579832,5.28403361 15.7579832,5.70084034 L15.7579832,8.76638655 L18.0369748,11.0386555 C18.3294118,11.3277311 18.3327731,11.8016807 18.0436975,12.097479 C17.902521,12.2420168 17.707563,12.3226891 17.5058824,12.3193277 C17.3042017,12.3159664 17.112605,12.2386555 16.9714286,12.097479 Z" id="Desconexión_2Regular"></path>
        </g>
    </g>
</svg>

<svg width="24" height="24" viewBox="0 0 24 24" xmlns="http://www.w3.org/2000/svg"><path d="M14.756 16.195c4.881 0 7.365-2.47 7.365-7.338 0-4.88-2.484-7.358-7.361-7.358-3.237 0-5.422 1.093-6.525 3.23H9.47c1.193 0 2.074.31 2.716.952.628.638.941 1.519.941 2.709v7.7c.521.065 1.049.105 1.63.105zm-3.136 3.771V8.386c0-.766-.161-1.307-.5-1.647-.34-.339-.881-.51-1.654-.51H3.657c-.763 0-1.29.168-1.644.52-.35.35-.51.888-.51 1.638v11.58c0 .77.16 1.317.51 1.66.34.33.881.5 1.644.5H9.47c.763 0 1.3-.17 1.644-.5.35-.343.507-.89.507-1.66zM14.756 0c5.711 0 8.868 3.15 8.868 8.857 0 5.698-3.157 8.837-8.868 8.837-.571 0-1.112-.04-1.633-.1v2.372c0 1.2-.31 2.088-.952 2.72-.628.628-1.522.94-2.705.94H3.657c-1.183 0-2.064-.308-2.706-.94-.638-.632-.951-1.52-.951-2.72V8.386c0-1.17.313-2.047.941-2.685.649-.649 1.533-.972 2.716-.972h2.945C7.825 1.65 10.632 0 14.756 0zM6.561 18.84c.615 0 .982.37.982.985 0 .303-.084.541-.256.716-.171.175-.423.27-.726.27-.302 0-.554-.095-.726-.27-.171-.175-.255-.413-.255-.716 0-.618.366-.985.981-.985zm10.41-6.743l-2.497-2.49a.748.748 0 01-.222-.531V5.7a.754.754 0 011.506 0v3.065l2.279 2.273c.292.289.296.763.007 1.058a.736.736 0 01-.538.222.77.77 0 01-.535-.222z" fill="#5CB615" fill-rule="nonzero"/></svg>
